X:13
T:The White Petticoat
D:Solas: Solas (1996)
R:jig
M:6/8
Q:3/8=120
K:Em
| E6 | E3 E3 |
%
|: Bed cBA | GFE B,EG | FBB cBB | eBB cBA |
   Bed cBA | GFE B,EG | FBB cBA | GED E3 :|
|: gec Gce | gaf gec | cBA EAc | Be^d eBG |
   FBB GBB | FBA GFE | B,EG cBA | GED E3 :|
%
|: Bed cBA | GFE B,EG | FBB cBB | eBB cBA |
   Bed cBA | GFE B,EG | FBB cBA | GED E3 :|
|: gec Gce | gaf gec | cBA EAc | Be^d eBG |
   FBB GBB | FBA GFE | B,EG cBA | GED E3 :|
%
|: Bed cBA | GFE B,EG | FBB cBB | eBB cBA |
   Bed cBA | GFE B,EG | FBB cBA | GED E3 :|
|: gec Gce | gaf gec | cBA EAc | Be^d eBG |
   FBB GBB | FBA GFE | B,EG cBA | GED E3 :|
%

